X: 85
T:The Ton or Jessie's Hornpipe
% Nottingham Music Database
S:via PR
M:4/4
L:1/4
K:G
B/2c/2|"G"dg gd/2c/2|Bd dB/2A/2|"C"GG "D"AA|
"G"B/2A/2B/2c/2 BB/2c/2|dg gd/2c/2|"G"Bd dB/2A/2|"C"GG "D"AA|"G"G3::
B/2c/2|"G"dg "C"ec|"G"dg "C"ec|"G"d3/2B/2 "A7"AG|"D"A/2G/2A/2B/2 AB/2c/2|
"G"dg "C"ec|"G"dg "C"ec|"G"B/2d/2B/2G/2 "D7"A/2c/2A/2F/2|"G"G3:|


